lib/brands/icons/fedora.svg

<svg xmlns="http://www.w3.org/2000/svg" fill="none" aria-hidden="true" viewBox="0 0 48 48"><g id="fedora-Icon"><path id="vector" fill="#294172" d="M45 24.0007C45 12.4024 35.5977 3 23.9997 3C12.4067 3 3.0082 12.3945 3 23.9859V40.2369C3.00623 42.8688 5.14085 44.9995 7.77438 44.9995H24.0082C35.6025 44.9949 45 35.5958 45 24.0007Z"/><path id="vector_2" fill="#3C6EB4" d="M30.1651 7.97217C24.7332 7.97217 20.314 12.3912 20.314 17.8233V23.052H15.107C9.67505 23.052 5.25586 27.4713 5.25586 32.9033C5.25586 38.335 9.67505 42.7544 15.107 42.7544C20.5389 42.7544 24.9581 38.335 24.9581 32.9033V27.6744H30.1651C35.5971 27.6744 40.0164 23.2552 40.0164 17.8233C40.0164 12.3912 35.5971 7.97217 30.1651 7.97217V7.97217ZM20.3504 32.9033C20.3504 35.7944 17.9983 38.1465 15.107 38.1465C12.2157 38.1465 9.86356 35.7944 9.86356 32.9033C9.86356 30.012 12.2157 27.6598 15.107 27.6598H20.314V27.6744H20.3504V32.9033V32.9033ZM30.1651 23.0667H24.9581V23.052H24.9219V17.8233C24.9219 14.932 27.274 12.5799 30.1651 12.5799C33.0563 12.5799 35.4086 14.932 35.4086 17.8233C35.4086 20.7146 33.0563 23.0667 30.1651 23.0667V23.0667Z"/><path id="vector_3" fill="white" d="M32.3428 8.27092C31.5783 8.07109 30.9913 7.97791 30.1656 7.97791C24.7225 7.97791 20.3095 12.391 20.3095 17.8338V23.0579H16.1817C14.8946 23.0579 13.8545 24.0693 13.8553 25.3541C13.8553 26.6308 14.884 27.6465 16.1574 27.6465L19.575 27.6472C19.9807 27.6472 20.3098 27.9753 20.3098 28.3804V32.9008C20.3048 35.7704 17.977 38.0949 15.1074 38.0949C14.1353 38.0949 13.8947 37.9675 13.231 37.9675C11.837 37.9675 10.9043 38.902 10.9043 40.187C10.9046 41.2499 11.8155 42.1638 12.9301 42.4555C13.6947 42.6553 14.2817 42.7487 15.1074 42.7487C20.5505 42.7487 24.9635 38.3355 24.9635 32.8926V27.6687H29.0913C30.3784 27.6687 31.4185 26.6572 31.4177 25.3725C31.4177 24.0956 30.389 23.08 29.1156 23.08L25.698 23.0794C25.5033 23.0795 25.3165 23.0024 25.1787 22.8649C25.0409 22.7273 24.9634 22.5407 24.9631 22.346V17.8256C24.9682 14.956 27.2959 12.6315 30.1656 12.6315C31.1376 12.6315 31.3783 12.759 32.0419 12.759C33.436 12.759 34.3687 11.8244 34.3687 10.5396C34.3684 9.47645 33.4575 8.56262 32.3428 8.27092Z"/></g></svg>

<svg xmlns="http://www.w3.org/2000/svg" fill="none" aria-hidden="true" viewBox="0 0 48 48"><path fill="#294172" d="M45 24c0-11.598-9.402-21-21-21C12.407 3 3.008 12.395 3 23.986v16.25A4.774 4.774 0 0 0 7.774 45h16.234C35.603 44.994 45 35.596 45 24Z"/><path fill="#3C6EB4" d="M30.165 7.972c-5.432 0-9.851 4.42-9.851 9.851v5.229h-5.207c-5.432 0-9.851 4.42-9.851 9.851 0 5.432 4.42 9.851 9.851 9.851 5.432 0 9.851-4.419 9.851-9.85v-5.23h5.207c5.432 0 9.851-4.419 9.851-9.85 0-5.433-4.419-9.852-9.85-9.852ZM20.35 32.903a5.25 5.25 0 0 1-5.243 5.244 5.25 5.25 0 0 1-5.243-5.244 5.25 5.25 0 0 1 5.243-5.243h5.207v.014h.036v5.23Zm9.815-9.836h-5.207v-.015h-.036v-5.229a5.25 5.25 0 0 1 5.243-5.243 5.25 5.25 0 0 1 5.244 5.243 5.25 5.25 0 0 1-5.244 5.244Z"/><path fill="#fff" d="M32.343 8.27c-.765-.199-1.352-.292-2.177-.292-5.444 0-9.857 4.413-9.857 9.856v5.224h-4.127c-1.287 0-2.327 1.011-2.327 2.296a2.29 2.29 0 0 0 2.302 2.293h3.418c.406 0 .735.328.735.733v4.52a5.203 5.203 0 0 1-5.203 5.195c-.972 0-1.212-.127-1.876-.127-1.394 0-2.327.934-2.327 2.219 0 1.063.912 1.977 2.026 2.269.765.2 1.352.293 2.177.293 5.444 0 9.857-4.413 9.857-9.856v-5.224h4.127c1.287 0 2.328-1.012 2.327-2.297a2.29 2.29 0 0 0-2.302-2.292h-3.418a.735.735 0 0 1-.735-.734v-4.52a5.203 5.203 0 0 1 5.203-5.194c.972 0 1.212.127 1.876.127 1.394 0 2.327-.935 2.327-2.22 0-1.063-.911-1.976-2.026-2.268Z"/></svg>
